X:244
T:Ann From Monaghan
O:england
R:Reel
C:Ed Reavy
M:2/2
L:1/8
N:Ed's favorite aunt on his mother's side. She was a
N:lively story teller who could capture
N:the hearts of the children who heard
N:her speak. And she knew everyone who lived
N:in her region. Ed never quite
N:finishes talking about this fascinating
N:woman of the tradition. Much of
N:his musical inspiration has been kindled
N:by recollections of what Aunt
N:Ann said many years ago.
K:D
c|:d2 fa gece|dged dAA=c|BGGB AFFA|GFED CDEF|D2 FA E2 GB|
ABce defg|afge fded|cAGE FD D:||g|:faa^g afdc|dfa=g fdd=f|
egg^f ge=cB|=ceg=f ecce|d2 eg ^f2 af|g2 bg ecAf|
(3agf (3gfe (3fde fded|cAGE FD D:||


